#define ir0_desktop_width 32
#define ir0_desktop_height 32
static unsigned char ir0_desktop_bits[] = {
   0x11, 0x00, 0x44, 0x00, 0x22, 0x00, 0x88, 0x00,
   0x44, 0x00, 0x11, 0x00, 0x88, 0x00, 0x22, 0x00,
   0x01, 0x44, 0x00, 0x11, 0x02, 0x88, 0x00, 0x22,
   0x04, 0x11, 0x00, 0x44, 0x08, 0x22, 0x00, 0x88,
   0x10, 0x44, 0x01, 0x11, 0x20, 0x88, 0x02, 0x22,
   0x40, 0x11, 0x04, 0x44, 0x80, 0x22, 0x08, 0x88,
   0x00, 0x45, 0x10, 0x11, 0x00, 0x8a, 0x20, 0x22,
   0x00, 0x14, 0x41, 0x44, 0x00, 0x28, 0x82, 0x88,
   0x11, 0x40, 0x04, 0x11, 0x22, 0x80, 0x08, 0x22,
   0x44, 0x00, 0x11, 0x44, 0x88, 0x00, 0x22, 0x88,
   0x01, 0x11, 0x44, 0x00, 0x02, 0x22, 0x88, 0x00,
   0x04, 0x44, 0x11, 0x00, 0x08, 0x88, 0x22, 0x00,
   0x10, 0x11, 0x44, 0x01, 0x20, 0x22, 0x88, 0x02,
   0x40, 0x44, 0x11, 0x04, 0x80, 0x88, 0x22, 0x08,
   0x00, 0x11, 0x45, 0x10, 0x00, 0x22, 0x8a, 0x20,
   0x00, 0x44, 0x14, 0x41, 0x00, 0x88, 0x28, 0x82 };
